tn/sound-on.svg

<svg viewBox="0 0 15 15" fill="none" xmlns="http://www.w3.org/2000/svg" height="1em" width="1em">
  <path d="M8.74641 1.06494C8.90313 1.1537 9 1.31989 9 1.5V13.5C9 13.6801 8.9031 13.8463 8.74635 13.9351C8.58959 14.0239 8.39722 14.0214 8.24275 13.9287L3.36151 11H1.5C0.672066 11 0 10.329 0 9.5V5.49739C0 4.66798 0.672491 3.99804 1.5 3.99804H3.36159L8.24288 1.07118C8.39735 0.978558 8.58969 0.976173 8.74641 1.06494Z" fill="black"/>
  <path d="M13.8535 4.14438L13.4998 3.79094L12.793 4.49827L13.1444 4.84953L13.1466 4.85184C13.1502 4.85561 13.1571 4.86308 13.1669 4.87426C13.1864 4.89663 13.2175 4.93374 13.2564 4.98555C13.3342 5.08924 13.4428 5.2512 13.5529 5.47128C13.7723 5.90979 14.0001 6.58318 14.0001 7.49609C14.0001 8.409 13.7723 9.08238 13.5529 9.5209C13.4428 9.74097 13.3342 9.90294 13.2564 10.0066C13.2175 10.0584 13.1864 10.0955 13.1669 10.1179C13.1571 10.1291 13.1502 10.1366 13.1466 10.1403L13.1445 10.1426L12.793 10.4939L13.4998 11.2012L13.8535 10.8478L13.5001 10.4941C13.8535 10.8478 13.8533 10.848 13.8535 10.8478L13.8543 10.8471L13.8551 10.8462L13.857 10.8443L13.862 10.8392L13.876 10.8245C13.8871 10.8127 13.9017 10.7967 13.9192 10.7767C13.9543 10.7366 14.0014 10.68 14.0562 10.6069C14.1659 10.4607 14.3073 10.2479 14.4472 9.96835C14.7278 9.40751 15.0001 8.58188 15.0001 7.49609C15.0001 6.4103 14.7278 5.58467 14.4472 5.02383C14.3073 4.74423 14.1659 4.53144 14.0562 4.3853C14.0014 4.31219 13.9543 4.25561 13.9192 4.21551C13.9017 4.19546 13.8871 4.17951 13.876 4.16767L13.862 4.15296L13.857 4.1479L13.8551 4.14595L13.8543 4.14511C13.8541 4.14493 13.8535 4.14438 13.5001 4.49804L13.8535 4.14438Z" fill="black"/>
</svg>

<svg viewBox="0 0 15 15" fill="none" xmlns="http://www.w3.org/2000/svg" height="1em" width="1em">
  <path d="M8.746 1.065A.5.5 0 0 1 9 1.5v12a.5.5 0 0 1-.757.429L3.362 11H1.5A1.5 1.5 0 0 1 0 9.5V5.497a1.5 1.5 0 0 1 1.5-1.499h1.862l4.88-2.927a.5.5 0 0 1 .504-.006Zm5.108 3.079-.354-.353-.707.707.351.352.003.002.02.022a3.194 3.194 0 0 1 .386.597c.22.439.447 1.112.447 2.025 0 .913-.228 1.586-.447 2.025a3.19 3.19 0 0 1-.297.486 1.988 1.988 0 0 1-.11.133l-.002.003-.351.35.707.708.354-.353-.354-.354.354.354.001-.002.002-.002.005-.005.014-.014.043-.048c.035-.04.082-.097.137-.17.11-.146.251-.36.391-.639.28-.56.553-1.386.553-2.472s-.272-1.911-.553-2.472a4.19 4.19 0 0 0-.39-.639 2.89 2.89 0 0 0-.181-.217l-.014-.015-.005-.005-.002-.002c0-.001-.002-.002-.355.352l.354-.354Z" fill="#000"/>
</svg>
